X: 3
T: Donald, Willie And His Dog
R: slip jig
M: 9/8
L: 1/8
K: Gmaj
|: G2 B BGB A2 F | G2 B BGB A3 | G2 B BGB A2 F | B2 G GAF G3 :||: A2 d dGB A2 G | A2 d dGB A3 | A2 d dGB A2 G | B2 G GAF G3 :||: G2 B GAA BGG | G2 A GBB A3 | G2 B GAA BGG | B2 G GAF G3 :||: d2 B Bec d2 c | BdB BcB A3 | d2 B Bec d2 c | B2 G GAF G3 :|G2 B BGB A2 d | G2 B BGB c>BA | G2 B BG/A/B AFD | E2 G GAF G2 :|A2 d dGB A2 F | A2 d dGB c>AF | Add dGB A2 c | B2 G GAF G2 :|G2 B GAA Bdd | G2 A GBB A>FD | G2 B GAA BdD | E2 G GAF G2 :|d2 B Be^c dBG | B/c/dB cBc A>Bc | d2 B Be^c d2 =c | B2 G GAF G2 :|d2 B BE^c dBG | B/c/dB cBc A>Bc | d2 B BE^c d2 =c | B2 G GAF G2 :|


Tune 3019	Setting 16169

